contributed-vectors/pixel_tips.svg

<svg xmlns="http://www.w3.org/2000/svg" width="192" height="192" fill="none"><circle cx="96" cy="96" r="88" fill="#9ABEFF"/><path fill="#F9DE81" d="m77.5 159 39-19H76l-6-5.5V153s0 2.5 1.5 4 3.5 2 3.5 2h2.5Z"/><path fill="#98DC9A" d="m116.5 140-39 19H82v3.5s.5 2 2 3.5 3.5 2 3.5 2h17s2.5-.5 4-2 1.5-3.5 1.5-3.5V159h6.5s2-.5 3.5-2 2-3 2-3v-19.5l-5.5 5.5Z"/><path fill="#fff" d="M70 132.653V112h52v20.653c0 1.227-.116 2.472-.694 3.554A7.618 7.618 0 0 1 120 138a7.618 7.618 0 0 1-1.793 1.306c-1.082.578-2.327.694-3.554.694H77.485c-.987 0-1.982-.078-2.905-.431-.815-.312-1.825-.814-2.58-1.569a7.608 7.608 0 0 1-1.306-1.793c-.578-1.082-.694-2.327-.694-3.554Z"/><circle cx="96" cy="72" r="48" fill="#fff"/><path fill="#F9DE81" d="M72 91h48v7H72zM92 98h9v42h-9z"/></svg>

<svg width="192" height="192" viewBox="0 0 192 192" fill="none" xmlns="http://www.w3.org/2000/svg">
<circle cx="96" cy="96" r="88" fill="#9ABEFF"/>
<path d="M77.5 159L116.5 140H76L70 134.5V153C70 153 70 155.5 71.5 157C73 158.5 75 159 75 159H77.5Z" fill="#F9DE81"/>
<path d="M116.5 140L77.5 159H82V162.5C82 162.5 82.5 164.5 84 166C85.5 167.5 87.5 168 87.5 168H104.5C104.5 168 107 167.5 108.5 166C110 164.5 110 162.5 110 162.5V159H116.5C116.5 159 118.5 158.5 120 157C121.5 155.5 122 154 122 154V134.5L116.5 140Z" fill="#98DC9A"/>
<path d="M70 132.653V112H122V132.653C122 133.88 121.884 135.125 121.306 136.207C120.997 136.785 120.571 137.429 120 138C119.429 138.571 118.785 138.997 118.207 139.306C117.125 139.884 115.88 140 114.653 140H77.4853C76.4975 140 75.5028 139.922 74.5802 139.569C73.7646 139.257 72.7555 138.755 72 138C71.4288 137.429 71.0026 136.785 70.6938 136.207C70.1161 135.125 70 133.88 70 132.653Z" fill="white"/>
<circle cx="96" cy="72" r="48" fill="white"/>
<rect x="72" y="91" width="48" height="7" fill="#F9DE81"/>
<rect x="92" y="98" width="9" height="42" fill="#F9DE81"/>
</svg>
